img/icons/twitter.svg

<svg width="30" height="30" viewBox="0 0 30 30" fill="none" xmlns="http://www.w3.org/2000/svg">
<circle cx="15" cy="15" r="15" fill="#88C74A"/>
<path d="M22.7619 10.3652C23.5762 9.89208 24.1854 9.14714 24.4759 8.26943C23.7108 8.71065 22.8737 9.02146 22.0008 9.18842C20.7905 7.94414 18.873 7.64134 17.3197 8.44922C15.7664 9.25709 14.9618 10.9756 15.3556 12.6446C12.2216 12.4916 9.30167 11.0528 7.3225 8.68611C6.2896 10.4176 6.81743 12.6311 8.52873 13.7445C7.90991 13.7252 7.30481 13.5623 6.76389 13.2696C6.76389 13.2855 6.76389 13.3014 6.76389 13.3173C6.76425 15.1209 8.07219 16.6746 9.89119 17.0321C9.3172 17.1838 8.71512 17.2062 8.13089 17.0974C8.64245 18.6399 10.1051 19.6966 11.7723 19.7281C10.3915 20.7814 8.6863 21.3526 6.93102 21.3498C6.61989 21.3502 6.30902 21.3328 6 21.2977C7.78246 22.4109 9.85701 23.0018 11.9758 22.9997C14.9235 23.0194 17.7563 21.89 19.8406 19.8641C21.9249 17.8382 23.0867 15.0848 23.0662 12.2199C23.0662 12.0557 23.0623 11.8924 23.0544 11.73C23.8178 11.1938 24.4766 10.5295 25 9.76841C24.2888 10.0748 23.5344 10.276 22.7619 10.3652Z" fill="white"/>
</svg>

<svg width="30" height="30" fill="none" xmlns="http://www.w3.org/2000/svg"><circle cx="15" cy="15" r="15" fill="#88C74A"/><path d="M22.762 10.365a3.817 3.817 0 001.714-2.096A7.942 7.942 0 0122 9.19c-1.21-1.245-3.128-1.548-4.681-.74-1.554.808-2.358 2.527-1.964 4.196-3.134-.153-6.054-1.592-8.034-3.959-1.032 1.732-.505 3.945 1.207 5.059a3.97 3.97 0 01-1.765-.475v.047c0 1.804 1.308 3.358 3.127 3.715a4.016 4.016 0 01-1.76.065c.511 1.543 1.974 2.6 3.641 2.631a7.966 7.966 0 01-4.841 1.622c-.311 0-.622-.017-.931-.052A11.267 11.267 0 0011.976 23c2.947.02 5.78-1.11 7.865-3.136 2.084-2.026 3.246-4.78 3.225-7.644 0-.164-.004-.328-.012-.49A7.8 7.8 0 0025 9.768a7.968 7.968 0 01-2.238.597z" fill="#fff"/></svg>
